svgs/gimme5.svg

<svg xmlns="http://www.w3.org/2000/svg" viewBox="0 0 192 192"><path d="M106.267 145.661c-11.765-1.069-24.634-4.776-49.777-14.339-11.8-4.488-27.183-10.707-28.227-11.412-.492-.332-.315-.437.75-.445 3.123-.024 41.063-1.88 44.202-2.163 3.284-.295 2.821-.389-15.53-3.162-10.404-1.572-19.274-2.945-19.712-3.053-.438-.107 2.429-.788 6.371-1.512 14.898-2.737 25.468-4.776 24.962-4.815-.288-.022-12.198-1.904-26.465-4.182C28.573 98.3 16.623 96.42 16.286 96.4c-1.672-.1 3.514-1.249 28.188-6.246 16.778-3.399 26.464-5.547 25.885-5.742-.51-.171-10.11-.892-21.334-1.601s-20.274-1.427-20.11-1.594c.163-.168 8.779-2.036 19.146-4.151C58.428 74.95 66.76 73.17 66.578 73.11c-.182-.061-6.951-.847-15.041-1.748s-14.79-1.732-14.889-1.846c-.73-.845 19.945-8.081 31.988-11.197 26.871-6.951 52.366-8.424 68.874-3.98l2.372.639 5.592-3.195c4.909-2.804 11.765-6.155 11.765-5.75 0 .079-.889 2.184-1.975 4.678-1.76 4.039-3.589 10.757-3.597 13.211-.002.469.777 1.855 1.73 3.081 2.495 3.207 6.506 10.12 7.831 13.498 1.173 2.99 2.52 8.542 2.993 12.34.234 1.872.43 2.222 1.482 2.646 1.801.726 4.161.596 7.269-.4 1.525-.489 2.839-.812 2.921-.718.165.191-.611 16.582-.964 20.363l-.226 2.418-4.849 4.768c-6.005 5.905-10.002 9.237-14.954 12.471-12.816 8.369-31.9 12.792-48.633 11.272Zm12.037-23.664c7.504-1.838 11.38-6.597 11.769-14.452.21-4.221-.289-6.598-2.009-9.568-1.64-2.832-4.639-4.937-8.112-5.695-3.079-.671-7.156-.344-8.932.718-.683.408-1.337.633-1.452.5-.116-.133.1-1.702.478-3.486l.687-3.243h16.242V76.633l-12.429.121-12.429.122-2.477 12.656c-1.363 6.961-2.49 13.019-2.505 13.462-.024.73.493.806 5.534.806 5.151 0 5.593-.068 5.987-.919.726-1.569 3.483-2.896 5.477-2.636 3.288.428 5.489 4.441 4.51 8.22-1.264 4.876-7.359 5.983-10.022 1.82l-.911-1.423H96.647l.28 1.496c.745 3.986 3.535 8.045 6.908 10.051 3.724 2.215 9.377 2.835 14.469 1.588Zm33.505-39.862c2.104-1.912.925-5.949-1.738-5.949-2.755 0-3.853 3.683-1.749 5.868 1.239 1.286 2.139 1.307 3.487.081Z"/></svg>

<svg
    xmlns="http://www.w3.org/2000/svg"
    viewBox="0 0 192 192"
    id="vector">
    <path
        id="path"
        d="M 106.267 145.661 C 94.502 144.592 81.633 140.885 56.49 131.322 C 44.69 126.834 29.307 120.615 28.263 119.91 C 27.771 119.578 27.948 119.473 29.013 119.465 C 32.136 119.441 70.076 117.585 73.215 117.302 C 76.499 117.007 76.036 116.913 57.685 114.14 C 47.281 112.568 38.411 111.195 37.973 111.087 C 37.535 110.98 40.402 110.299 44.344 109.575 C 59.242 106.838 69.812 104.799 69.306 104.76 C 69.018 104.738 57.108 102.856 42.841 100.578 C 28.573 98.3 16.623 96.42 16.286 96.4 C 14.614 96.3 19.8 95.151 44.474 90.154 C 61.252 86.755 70.938 84.607 70.359 84.412 C 69.849 84.241 60.249 83.52 49.025 82.811 C 37.801 82.102 28.751 81.384 28.915 81.217 C 29.078 81.049 37.694 79.181 48.061 77.066 C 58.428 74.95 66.76 73.17 66.578 73.11 C 66.396 73.049 59.627 72.263 51.537 71.362 C 43.447 70.461 36.747 69.63 36.648 69.516 C 35.918 68.671 56.593 61.435 68.636 58.319 C 95.507 51.368 121.002 49.895 137.51 54.339 L 139.882 54.978 L 145.474 51.783 C 150.383 48.979 157.239 45.628 157.239 46.033 C 157.239 46.112 156.35 48.217 155.264 50.711 C 153.504 54.75 151.675 61.468 151.667 63.922 C 151.665 64.391 152.444 65.777 153.397 67.003 C 155.892 70.21 159.903 77.123 161.228 80.501 C 162.401 83.491 163.748 89.043 164.221 92.841 C 164.455 94.713 164.651 95.063 165.703 95.487 C 167.504 96.213 169.864 96.083 172.972 95.087 C 174.497 94.598 175.811 94.275 175.893 94.369 C 176.058 94.56 175.282 110.951 174.929 114.732 L 174.703 117.15 L 169.854 121.918 C 163.849 127.823 159.852 131.155 154.9 134.389 C 142.084 142.758 123 147.181 106.267 145.661 Z M 118.304 121.997 C 125.808 120.159 129.684 115.4 130.073 107.545 C 130.283 103.324 129.784 100.947 128.064 97.977 C 126.424 95.145 123.425 93.04 119.952 92.282 C 116.873 91.611 112.796 91.938 111.02 93 C 110.337 93.408 109.683 93.633 109.568 93.5 C 109.452 93.367 109.668 91.798 110.046 90.014 L 110.733 86.771 L 126.975 86.771 L 126.975 76.633 L 114.546 76.754 L 102.117 76.876 L 99.64 89.532 C 98.277 96.493 97.15 102.551 97.135 102.994 C 97.111 103.724 97.628 103.8 102.669 103.8 C 107.82 103.8 108.262 103.732 108.656 102.881 C 109.382 101.312 112.139 99.985 114.133 100.245 C 117.421 100.673 119.622 104.686 118.643 108.465 C 117.379 113.341 111.284 114.448 108.621 110.285 L 107.71 108.862 L 96.647 108.862 L 96.927 110.358 C 97.672 114.344 100.462 118.403 103.835 120.409 C 107.559 122.624 113.212 123.244 118.304 121.997 Z M 151.809 82.135 C 153.913 80.223 152.734 76.186 150.071 76.186 C 147.316 76.186 146.218 79.869 148.322 82.054 C 149.561 83.34 150.461 83.361 151.809 82.135 Z"
        fill="#000000"
        stroke-width="12"/>
</svg>
